X: 122205
T: Lads of Fingall
S: Fitzmaurice Collection
L: 1/8
M: 6/8
R: jig
Q: 1/4=180
K: D
d | AGF GAB | A2D D2F | G2E FED | EFE G2B |
AGF GAB |A2D D2F | G2E F/G/AF | DED D2 :|
c | dfd cBA | d2A A2B | =cdc BAG | B3 A2 B/c/|
dcB AGF | GAB A2F | G2E F/G/AF | DED D2 :|
B | AFF BGG | AFF DEF | G2E FED | EFE G2B |
AFF BGG | AFF DEF | G2E F/G/AF | DED D2 :|
